public/filter.svg

<svg width="16" height="16" viewBox="0 0 16 16" fill="none" xmlns="http://www.w3.org/2000/svg">
<path d="M12.6668 1.33334H3.3335C2.80306 1.33334 2.29436 1.54405 1.91928 1.91912C1.54421 2.2942 1.3335 2.8029 1.3335 3.33334V4.11334C1.3334 4.38863 1.39014 4.66098 1.50016 4.91334V4.95334C1.59435 5.16732 1.72776 5.36178 1.8935 5.52667L6.00016 9.60667V14C5.99994 14.1133 6.02859 14.2248 6.08341 14.3239C6.13823 14.4231 6.21742 14.5066 6.3135 14.5667C6.41959 14.6324 6.54201 14.6671 6.66683 14.6667C6.77119 14.666 6.87395 14.6409 6.96683 14.5933L9.6335 13.26C9.74344 13.2046 9.83589 13.1198 9.90061 13.0151C9.96533 12.9104 9.99979 12.7898 10.0002 12.6667V9.60667L14.0802 5.52667C14.2459 5.36178 14.3793 5.16732 14.4735 4.95334V4.91334C14.5927 4.66296 14.6585 4.39052 14.6668 4.11334V3.33334C14.6668 2.8029 14.4561 2.2942 14.081 1.91912C13.706 1.54405 13.1973 1.33334 12.6668 1.33334ZM8.86016 8.86C8.79838 8.9223 8.74949 8.99617 8.71632 9.0774C8.68314 9.15862 8.66632 9.2456 8.66683 9.33334V12.2533L7.3335 12.92V9.33334C7.334 9.2456 7.31719 9.15862 7.28401 9.0774C7.25083 8.99617 7.20195 8.9223 7.14016 8.86L3.60683 5.33334H12.3935L8.86016 8.86ZM13.3335 4H2.66683V3.33334C2.66683 3.15652 2.73707 2.98696 2.86209 2.86193C2.98712 2.73691 3.15669 2.66667 3.3335 2.66667H12.6668C12.8436 2.66667 13.0132 2.73691 13.1382 2.86193C13.2633 2.98696 13.3335 3.15652 13.3335 3.33334V4Z" fill="#3365FC"/>
</svg>

<svg xmlns="http://www.w3.org/2000/svg" width="16" height="16" fill="none" xmlns:v="https://vecta.io/nano"><path d="M12.667 1.333H3.334a2 2 0 0 0-2 2v.78a2 2 0 0 0 .167.8v.04c.094.214.228.408.393.573L6 9.607V14c0 .113.028.225.083.324s.134.183.23.243c.106.066.229.1.353.1a.67.67 0 0 0 .3-.073l2.667-1.333c.11-.055.202-.14.267-.245s.099-.225.1-.348v-3.06l4.08-4.08c.166-.165.299-.359.393-.573v-.04a2 2 0 0 0 .193-.8v-.78a2 2 0 0 0-2-2zM8.86 8.86c-.062.062-.111.136-.144.217s-.05.168-.049.256v2.92l-1.333.667V9.333c0-.088-.016-.175-.049-.256s-.082-.155-.144-.217L3.607 5.333h8.787L8.86 8.86zM13.334 4H2.667v-.667c0-.177.07-.346.195-.471s.295-.195.471-.195h9.333c.177 0 .346.07.471.195s.195.295.195.471V4z" fill="#3365fc"/></svg>
